src/front_assets/svg/google-play.svg

<svg xmlns="http://www.w3.org/2000/svg" width="104" height="30" viewbox="0 0 104 30" fill="none">
											<g clip-path="url(#clip0_2441_3721)">
												<path d="M100.117 0.379395H4.57942C2.64443 0.379395 1.07581 1.927 1.07581 3.83607V26.1686C1.07581 28.0777 2.64443 29.6253 4.57942 29.6253H100.117C102.052 29.6253 103.621 28.0777 103.621 26.1686V3.83607C103.621 1.927 102.052 0.379395 100.117 0.379395Z" fill="black"></path>
												<path d="M100.117 30H4.57907C2.43323 30 0.690918 28.281 0.690918 26.1639V3.83607C0.690918 1.71897 2.43323 0 4.57907 0H100.117C102.262 0 104.005 1.71897 104.005 3.83607V26.1639C104.005 28.281 102.262 30 100.117 30ZM4.57907 0.758782C2.85575 0.758782 1.46 2.13583 1.46 3.83607V26.1639C1.46 27.8595 2.8605 29.2412 4.57907 29.2412H100.117C101.835 29.2412 103.236 27.8595 103.236 26.1639V3.83607C103.236 2.13583 101.835 0.754098 100.117 0.754098H4.57907V0.758782Z" fill="#A7A9AC"></path>
												<path d="M52.8087 16.4074C51.0142 16.4074 49.5472 17.7564 49.5472 19.6112C49.5472 21.466 51.0095 22.8149 52.8087 22.8149C54.608 22.8149 56.0702 21.4566 56.0702 19.6112C56.0702 17.7657 54.608 16.4074 52.8087 16.4074ZM52.8087 21.5549C51.826 21.5549 50.9762 20.754 50.9762 19.6112C50.9762 18.4683 51.826 17.6674 52.8087 17.6674C53.7915 17.6674 54.6412 18.4542 54.6412 19.6112C54.6412 20.7681 53.7915 21.5549 52.8087 21.5549ZM45.6971 16.4074C43.9025 16.4074 42.4356 17.7564 42.4356 19.6112C42.4356 21.466 43.8978 22.8149 45.6971 22.8149C47.4963 22.8149 48.9586 21.4566 48.9586 19.6112C48.9586 17.7657 47.4963 16.4074 45.6971 16.4074ZM45.6971 21.5549C44.7143 21.5549 43.8646 20.754 43.8646 19.6112C43.8646 18.4683 44.7143 17.6674 45.6971 17.6674C46.6798 17.6674 47.5296 18.4542 47.5296 19.6112C47.5296 20.7681 46.6798 21.5549 45.6971 21.5549ZM37.2371 17.391V18.7493H40.5318C40.4322 19.5128 40.1758 20.0702 39.7818 20.4589C39.3023 20.932 38.5522 21.4519 37.2371 21.4519C35.2052 21.4519 33.6196 19.836 33.6196 17.836C33.6196 15.836 35.2052 14.2201 37.2371 14.2201C38.3338 14.2201 39.1314 14.6463 39.72 15.1896L40.6933 14.2294C39.8672 13.4519 38.7753 12.8571 37.2371 12.8571C34.4551 12.8571 32.1194 15.0912 32.1194 17.8313C32.1194 20.5713 34.4551 22.8055 37.2371 22.8055C38.7373 22.8055 39.872 22.3184 40.755 21.4097C41.6665 20.5104 41.9466 19.2505 41.9466 18.2294C41.9466 17.9156 41.9228 17.6205 41.8706 17.3816H37.2324L37.2371 17.391ZM71.8317 18.4449C71.5611 17.7282 70.7351 16.4074 69.0497 16.4074C67.3644 16.4074 65.9876 17.7048 65.9876 19.6112C65.9876 21.4051 67.3644 22.8149 69.2111 22.8149C70.7018 22.8149 71.5611 21.9156 71.9172 21.3957L70.811 20.6697C70.4407 21.2037 69.9375 21.5549 69.2111 21.5549C68.4848 21.5549 67.9673 21.2271 67.635 20.5854L71.9789 18.8149L71.8317 18.4496V18.4449ZM67.4024 19.5128C67.3644 18.2763 68.3756 17.6439 69.102 17.6439C69.6669 17.6439 70.1464 17.925 70.3078 18.3231L67.4071 19.5128H67.4024ZM63.8703 22.6182H65.2992V13.2037H63.8703V22.6229V22.6182ZM61.5345 17.1193H61.4871C61.169 16.7446 60.5518 16.4027 59.778 16.4027C58.1544 16.4027 56.6637 17.8126 56.6637 19.6205C56.6637 21.4285 58.1544 22.8102 59.778 22.8102C60.5518 22.8102 61.169 22.4683 61.4871 22.0842H61.5345V22.5432C61.5345 23.7704 60.8699 24.4261 59.8017 24.4261C58.9282 24.4261 58.387 23.8079 58.1638 23.2833L56.92 23.7938C57.2761 24.6416 58.2256 25.6861 59.797 25.6861C61.4681 25.6861 62.8828 24.7165 62.8828 22.3465V16.5948H61.5298V17.1147L61.5345 17.1193ZM59.8967 21.5503C58.9139 21.5503 58.0879 20.7353 58.0879 19.6205C58.0879 18.5058 58.9139 17.6674 59.8967 17.6674C60.8794 17.6674 61.6295 18.4917 61.6295 19.6205C61.6295 20.7493 60.8651 21.5503 59.8967 21.5503ZM78.5114 13.199H75.098V22.6182H76.5222V19.0491H78.5114C80.0923 19.0491 81.6447 17.9203 81.6447 16.1264C81.6447 14.3325 80.0923 13.2037 78.5114 13.2037V13.199ZM78.5494 17.7376H76.5222V14.5105H78.5494C79.6128 14.5105 80.2205 15.3816 80.2205 16.1264C80.2205 16.8711 79.6175 17.7423 78.5494 17.7423V17.7376ZM87.3559 16.384C86.3257 16.384 85.2575 16.8336 84.816 17.8266L86.0788 18.3465C86.3494 17.8266 86.8526 17.658 87.3796 17.658C88.1155 17.658 88.8655 18.0936 88.8798 18.8711V18.9695C88.6234 18.8243 88.068 18.6041 87.3938 18.6041C86.0313 18.6041 84.6451 19.3442 84.6451 20.7259C84.6451 21.9859 85.7607 22.7962 87.014 22.7962C87.973 22.7962 88.5 22.3699 88.8323 21.8734H88.8798V22.5994H90.2565V18.9882C90.2565 17.3161 88.9937 16.384 87.3606 16.384H87.3559ZM87.185 21.5456C86.7197 21.5456 86.0693 21.3161 86.0693 20.7446C86.0693 20.0186 86.8811 19.7376 87.579 19.7376C88.2057 19.7376 88.5 19.8688 88.8798 20.0514C88.7706 20.9226 88.0063 21.5409 87.185 21.5409V21.5456ZM95.2651 16.5901L93.632 20.6744H93.5845L91.8897 16.5901H90.3562L92.8961 22.295L91.4482 25.4706H92.9341L96.8507 16.5901H95.2651ZM82.4328 22.6135H83.857V13.2037H82.4328V22.6229V22.6135Z" fill="white"></path>
												<path d="M8.74755 5.70472C8.52442 5.93423 8.39624 6.29488 8.39624 6.76327V23.4096C8.39624 23.878 8.52917 24.234 8.74755 24.4682L8.80452 24.5244L18.2567 15.1989V14.9787L8.80452 5.6532L8.74755 5.7094V5.70472Z" fill="#5BC9F4"></path>
												<path d="M21.4093 18.3088L18.257 15.1987V14.9786L21.4093 11.8685L21.4805 11.9107L25.212 14.0044C26.2802 14.6039 26.2802 15.5781 25.212 16.1777L21.4805 18.2713L21.4093 18.3135V18.3088Z" fill="url(#paint0_linear_2441_3721)"></path>
												<path d="M21.4804 18.2669L18.2569 15.0865L8.74774 24.4683C9.09905 24.8336 9.67824 24.8805 10.3334 24.5151L21.4804 18.2669Z" fill="url(#paint1_linear_2441_3721)"></path>
												<path d="M21.4804 11.9063L10.3334 5.65801C9.67824 5.29267 9.09905 5.33483 8.74774 5.70485L18.2569 15.0866L21.4804 11.9063Z" fill="url(#paint2_linear_2441_3721)"></path>
												<path d="M35.7888 6.23886C35.5039 5.98593 35.1241 5.82668 34.7063 5.82668C33.7664 5.82668 33.0447 6.59014 33.0447 7.5316C33.0447 8.47305 33.7664 9.22715 34.7063 9.22715C35.5134 9.22715 36.1021 8.76345 36.1401 8.03277H34.863V7.51286H36.8332C36.8332 9.0679 35.9929 9.80326 34.7063 9.80326C33.4198 9.80326 32.4371 8.78686 32.4371 7.5316C32.4371 6.27633 33.4293 5.25525 34.7063 5.25525C35.2998 5.25525 35.8362 5.48007 36.2255 5.84073L35.7888 6.23886Z" fill="white"></path>
												<path d="M40.318 5.30664V5.86402H38.2624V7.27854H40.0569V7.8406H38.2624V9.18018H40.3798V9.73755H37.6547V5.30664H40.3133H40.318Z" fill="white"></path>
												<path d="M44.2484 5.30664V5.87339H42.8859V9.73755H42.2735V5.87339H40.9109V5.30664H44.2484Z" fill="white"></path>
												<path d="M47.1589 5.30664V9.73755H46.5512V5.30664H47.1589Z" fill="white"></path>
												<path d="M51.2936 5.30652V5.87326H49.9311V9.73743H49.3186V5.87326H47.9561V5.30652H51.2936Z" fill="white"></path>
												<path d="M55.5713 5.25513C56.8579 5.25513 57.8549 6.27152 57.8549 7.53147C57.8549 8.79143 56.8579 9.80314 55.5713 9.80314C54.2848 9.80314 53.3021 8.78674 53.3021 7.53147C53.3021 6.2762 54.2943 5.25513 55.5713 5.25513ZM55.5713 9.22234C56.5161 9.22234 57.2424 8.46824 57.2424 7.53147C57.2424 6.59471 56.5208 5.83124 55.5713 5.83124C54.6219 5.83124 53.9097 6.59002 53.9097 7.53147C53.9097 8.47292 54.6313 9.22234 55.5713 9.22234Z" fill="white"></path>
												<path d="M61.4389 9.73755L59.3927 6.39798V9.73755H58.785V5.30664H59.3832L61.4104 8.61812V5.30664H62.018V9.73755H61.4389Z" fill="white"></path>
											</g>
											<defs>
												<linearGradient id="paint0_linear_2441_3721" x1="24.5189" y1="15.0863" x2="6.05609" y2="15.0863" gradientunits="userSpaceOnUse">
													<stop stop-color="#FEE000"></stop>
													<stop offset="0.42" stop-color="#FBBC0E"></stop>
													<stop offset="0.78" stop-color="#F9A318"></stop>
													<stop offset="1" stop-color="#F99B1C"></stop>
												</linearGradient>
												<linearGradient id="paint1_linear_2441_3721" x1="19.7286" y1="16.8149" x2="2.60133" y2="34.1747" gradientunits="userSpaceOnUse">
													<stop stop-color="#EF4547"></stop>
													<stop offset="1" stop-color="#C6186D"></stop>
												</linearGradient>
												<linearGradient id="paint2_linear_2441_3721" x1="2.28647" y1="-3.8455" x2="16.2712" y2="10.3291" gradientunits="userSpaceOnUse">
													<stop stop-color="#279E6F"></stop>
													<stop offset="0.04" stop-color="#2B9F6E"></stop>
													<stop offset="0.46" stop-color="#52B16B"></stop>
													<stop offset="0.8" stop-color="#6BBC69"></stop>
													<stop offset="1" stop-color="#74C169"></stop>
												</linearGradient>
												<clipPath id="clip0_2441_3721">
													<rect width="103.309" height="30" fill="white" transform="translate(0.690918)"></rect>
												</clipPath>
											</defs>
										</svg>

<svg xmlns="http://www.w3.org/2000/svg" width="104" height="30" fill="none"><g clip-path="url(#a)"><path fill="#000" d="M100.117.38H4.579c-1.935 0-3.503 1.547-3.503 3.456V26.17c0 1.909 1.568 3.456 3.503 3.456h95.538c1.935 0 3.504-1.547 3.504-3.456V3.836c0-1.909-1.569-3.457-3.504-3.457"/><path fill="#A7A9AC" d="M100.117 30H4.579C2.433 30 .691 28.281.691 26.164V3.836C.69 1.72 2.433 0 4.579 0h95.538c2.145 0 3.888 1.719 3.888 3.836v22.328c0 2.117-1.743 3.836-3.888 3.836M4.579.759C2.856.759 1.46 2.136 1.46 3.836v22.328c0 1.695 1.4 3.077 3.12 3.077h95.537c1.718 0 3.119-1.381 3.119-3.077V3.836c0-1.7-1.401-3.082-3.119-3.082H4.579z"/><path fill="#fff" d="M52.809 16.407c-1.795 0-3.262 1.35-3.262 3.204s1.463 3.204 3.262 3.204 3.261-1.358 3.261-3.204c0-1.845-1.462-3.204-3.261-3.204m0 5.148c-.983 0-1.833-.801-1.833-1.944s.85-1.944 1.833-1.944 1.832.787 1.832 1.944-.85 1.944-1.832 1.944m-7.112-5.148c-1.794 0-3.261 1.35-3.261 3.204s1.462 3.204 3.261 3.204 3.262-1.358 3.262-3.204c0-1.845-1.463-3.204-3.262-3.204m0 5.148c-.983 0-1.832-.801-1.832-1.944s.85-1.944 1.832-1.944 1.833.787 1.833 1.944-.85 1.944-1.833 1.944m-8.46-4.164v1.358h3.295c-.1.764-.356 1.321-.75 1.71-.48.473-1.23.993-2.545.993a3.593 3.593 0 0 1-3.617-3.616c0-2 1.585-3.616 3.617-3.616 1.097 0 1.894.426 2.483.97l.973-.96c-.826-.778-1.918-1.373-3.456-1.373-2.782 0-5.118 2.234-5.118 4.974s2.336 4.974 5.118 4.974c1.5 0 2.635-.487 3.518-1.395.911-.9 1.192-2.16 1.192-3.18 0-.314-.024-.61-.076-.848h-4.639zm34.595 1.054c-.27-.717-1.097-2.038-2.782-2.038s-3.062 1.298-3.062 3.204c0 1.794 1.376 3.204 3.223 3.204 1.49 0 2.35-.9 2.706-1.42l-1.106-.725c-.37.534-.874.885-1.6.885s-1.244-.328-1.576-.97l4.344-1.77-.147-.365zm-4.43 1.068a1.77 1.77 0 0 1 1.7-1.87c.565 0 1.044.282 1.206.68l-2.9 1.19zm-3.532 3.105h1.43v-9.414h-1.43v9.419zm-2.335-5.499h-.048c-.318-.374-.935-.716-1.709-.716-1.624 0-3.114 1.41-3.114 3.218s1.49 3.19 3.114 3.19c.774 0 1.391-.343 1.71-.727h.047v.46c0 1.226-.665 1.882-1.733 1.882-.874 0-1.415-.618-1.638-1.143l-1.244.51c.356.849 1.306 1.893 2.877 1.893 1.671 0 3.086-.97 3.086-3.34v-5.751H61.53v.52zm-1.638 4.431c-.983 0-1.81-.815-1.81-1.93s.827-1.953 1.81-1.953c.982 0 1.733.825 1.733 1.953 0 1.13-.765 1.93-1.733 1.93M78.51 13.2h-3.413v9.42h1.424v-3.57h1.99c1.58 0 3.133-1.129 3.133-2.923s-1.553-2.922-3.134-2.922zm.038 4.539h-2.027V14.51h2.027c1.064 0 1.671.87 1.671 1.615s-.602 1.616-1.67 1.616zm8.807-1.354c-1.03 0-2.099.45-2.54 1.443l1.263.52c.27-.52.774-.689 1.3-.689.736 0 1.486.436 1.5 1.213v.099a3.2 3.2 0 0 0-1.485-.366c-1.363 0-2.749.74-2.749 2.122 0 1.26 1.116 2.07 2.369 2.07.959 0 1.486-.426 1.818-.923h.048v.726h1.377v-3.61c0-1.673-1.263-2.605-2.896-2.605zm-.171 5.162c-.465 0-1.116-.23-1.116-.801 0-.726.812-1.007 1.51-1.007.627 0 .921.13 1.3.313-.108.872-.873 1.49-1.694 1.49zm8.08-4.956-1.633 4.084h-.047L91.89 16.59h-1.534l2.54 5.705-1.448 3.176h1.486l3.917-8.88zm-12.832 6.023h1.424v-9.41h-1.424v9.42z"/><path fill="#5BC9F4" d="M8.748 5.705c-.224.23-.352.59-.352 1.058V23.41c0 .468.133.824.352 1.058l.057.056 9.452-9.325v-.22L8.805 5.653l-.057.056z"/><path fill="url(#b)" d="m21.41 18.309-3.153-3.11v-.22l3.152-3.11.072.042 3.731 2.093c1.068.6 1.068 1.574 0 2.174L21.48 18.27l-.07.043z"/><path fill="url(#c)" d="m21.48 18.267-3.223-3.18-9.51 9.381c.352.366.931.413 1.586.047z"/><path fill="url(#d)" d="M21.48 11.906 10.333 5.658c-.655-.365-1.234-.323-1.585.047l9.509 9.382z"/><path fill="#fff" d="M35.789 6.239a1.63 1.63 0 0 0-1.083-.412c-.94 0-1.661.763-1.661 1.705 0 .941.721 1.695 1.661 1.695.807 0 1.396-.464 1.434-1.194h-1.277v-.52h1.97c0 1.555-.84 2.29-2.127 2.29a2.25 2.25 0 0 1-2.269-2.271c0-1.256.992-2.277 2.27-2.277.593 0 1.13.225 1.518.586zM40.318 5.307v.557h-2.056v1.415h1.795v.562h-1.795v1.34h2.118v.557h-2.725V5.307h2.663M44.248 5.307v.566h-1.362v3.865h-.613V5.873h-1.362v-.566zM47.159 5.307v4.43h-.608v-4.43zM51.294 5.307v.566H49.93v3.864h-.612V5.873h-1.363v-.566zM55.571 5.255a2.26 2.26 0 0 1 2.284 2.276c0 1.26-.997 2.272-2.284 2.272a2.25 2.25 0 0 1-2.269-2.272c0-1.255.992-2.276 2.27-2.276m0 3.967c.945 0 1.671-.754 1.671-1.69 0-.937-.721-1.7-1.67-1.7-.95 0-1.662.758-1.662 1.7 0 .94.721 1.69 1.661 1.69M61.439 9.738l-2.046-3.34v3.34h-.608V5.307h.598l2.027 3.311V5.307h.608v4.43z"/></g><defs><linearGradient id="b" x1="24.519" x2="6.056" y1="15.086" y2="15.086"><stop stop-color="#FEE000"/><stop offset=".42" stop-color="#FBBC0E"/><stop offset=".78" stop-color="#F9A318"/><stop offset="1" stop-color="#F99B1C"/></linearGradient><linearGradient id="c" x1="19.729" x2="2.601" y1="16.815" y2="34.175"><stop stop-color="#EF4547"/><stop offset="1" stop-color="#C6186D"/></linearGradient><linearGradient id="d" x1="2.286" x2="16.271" y1="-3.845" y2="10.329"><stop stop-color="#279E6F"/><stop offset=".04" stop-color="#2B9F6E"/><stop offset=".46" stop-color="#52B16B"/><stop offset=".8" stop-color="#6BBC69"/><stop offset="1" stop-color="#74C169"/></linearGradient><clipPath id="a"><path fill="#fff" d="M.69 0H104v30H.69z"/></clipPath></defs></svg>
